X: 4007
M: C
L: 1/8
K: A
uA>uB |\
c<c d>c B<e e>c | A>G A>c B<G A>F |\
E>FE>D C>EA>B | c<c d>c B2 A>B |\
c<c d>c B<e e>c | A>G A>c B<G A>F |\
E>FE>D C>EA>c | B<F G>E A2 |]
c<A A>B c>ff>e | c<A A>B c<A A>c |\
d>cd>f e>cA>c | B<F G>E A2 |]


